modules/feathericon/icons/wordpress.svg

<?xml version="1.0" encoding="UTF-8"?>
<svg width="14px" height="14px" viewBox="0 0 14 14" version="1.1" xmlns="http://www.w3.org/2000/svg" xmlns:xlink="http://www.w3.org/1999/xlink">
    <!-- Generator: sketchtool 48.1 (47250) - http://www.bohemiancoding.com/sketch -->
    <title>wordpress</title>
    <desc>Created with sketchtool.</desc>
    <defs></defs>
    <g id="brand" stroke="none" stroke-width="1" fill="none" fill-rule="evenodd">
        <g id="wordpress" fill="#000000">
            <path d="M6.99983537,0 C3.1401223,0 0,3.13995767 0,6.99967074 C0,10.8597131 3.1401223,13.9996707 6.99983537,13.9996707 C10.8595484,13.9996707 14,10.8597131 14,6.99967074 C14,3.13995767 10.8595484,0 6.99983537,0 M6.99983537,13.67881 C3.31709784,13.67881 0.3210254,10.6824083 0.3210254,6.99967074 C0.3210254,3.31709784 3.31709784,0.320860771 6.99983537,0.320860771 C10.6825729,0.320860771 13.67881,3.31709784 13.67881,6.99967074 C13.67881,10.6824083 10.6825729,13.67881 6.99983537,13.67881 M0.995079962,6.99962135 C0.995079962,9.37652634 2.3761477,11.4307596 4.37951082,12.4038782 L1.51497648,4.55587723 C1.18176858,5.3026317 0.995079962,6.12906632 0.995079962,6.99962135 M11.0536453,6.69682032 C11.0536453,5.95451082 10.7869473,5.44070555 10.5584431,5.04065851 C10.2542098,4.54595014 9.96857949,4.12730009 9.96857949,3.63226246 C9.96857949,3.08042803 10.3872295,2.56662277 10.9769285,2.56662277 C11.0035983,2.56662277 11.0289511,2.56991533 11.0547977,2.57139699 C9.98652399,1.59268109 8.56314675,0.994915334 6.99983537,0.994915334 C4.90197554,0.994915334 3.05632643,2.07125588 1.98261994,3.7014064 C2.12370649,3.70601599 2.25639699,3.70865005 2.36916745,3.70865005 C2.99706021,3.70865005 3.96952023,3.63226246 3.96952023,3.63226246 C4.29317968,3.61349483 4.33137347,4.08894167 4.00804327,4.12730009 C4.00804327,4.12730009 3.68257291,4.16532926 3.32071966,4.18426152 L5.50731421,10.6888946 L6.8215428,6.7476905 L5.88612418,4.18426152 C5.56262935,4.16532926 5.25625588,4.12730009 5.25625588,4.12730009 C4.93259643,4.10803857 4.97062559,3.61349483 5.29444967,3.63226246 C5.29444967,3.63226246 6.28584196,3.70865005 6.87587018,3.70865005 C7.50376294,3.70865005 8.47638758,3.63226246 8.47638758,3.63226246 C8.80021167,3.61349483 8.83824083,4.08894167 8.51458137,4.12730009 C8.51458137,4.12730009 8.18894638,4.16532926 7.82742239,4.18426152 L9.99755409,10.6391769 L10.5968015,8.63811853 C10.8559266,7.80707432 11.0536453,7.21079022 11.0536453,6.69682032 M7.10529633,7.52501646 L5.30343838,12.7601999 C5.84160865,12.9185724 6.41039981,13.0048377 6.99976952,13.0048377 C7.69911101,13.0048377 8.36980715,12.8841651 8.99407808,12.6645508 C8.9779445,12.6387041 8.96312794,12.6113758 8.95094544,12.5817427 L7.10529633,7.52501646 Z M12.2692286,4.11887112 C12.2949106,4.31016933 12.3095626,4.51529633 12.3095626,4.73639229 C12.3095626,5.3455174 12.1954751,6.03037159 11.8528833,6.88709784 L10.0187582,12.1899436 C11.8039887,11.1491627 13.0046237,9.21510818 13.0046237,6.99970367 C13.0046237,5.95563029 12.7379257,4.97411571 12.2692286,4.11887112" id="Shape"></path>
        </g>
    </g>
</svg>

<svg width="14" height="14" xmlns="http://www.w3.org/2000/svg"><path d="M7 0C3.14 0 0 3.14 0 7s3.14 7 7 7 7-3.14 7-7-3.14-7-7-7m0 13.679A6.687 6.687 0 0 1 .32 6.999 6.686 6.686 0 0 1 7 .322 6.687 6.687 0 0 1 13.679 7a6.687 6.687 0 0 1-6.68 6.679M.996 6.999a6.005 6.005 0 0 0 3.385 5.405L1.515 4.556A5.981 5.981 0 0 0 .995 7m10.059-.303c0-.742-.267-1.256-.496-1.656-.304-.495-.59-.914-.59-1.409 0-.552.42-1.065 1.009-1.065.027 0 .052.003.078.004A5.983 5.983 0 0 0 7 .995 5.998 5.998 0 0 0 1.983 3.7c.14.005.273.008.386.008.628 0 1.6-.077 1.6-.077.324-.019.362.457.039.495 0 0-.325.038-.687.057l2.186 6.505 1.315-3.941-.936-2.564c-.323-.019-.63-.057-.63-.057-.323-.019-.285-.514.038-.495 0 0 .992.077 1.582.077.628 0 1.6-.077 1.6-.077.324-.019.362.457.039.495 0 0-.326.038-.688.057l2.17 6.455.6-2c.259-.832.457-1.428.457-1.942m-3.949.828L5.303 12.76a5.998 5.998 0 0 0 3.691-.095.554.554 0 0 1-.043-.083L7.105 7.525zm5.164-3.406c.026.191.04.396.04.617 0 .61-.114 1.294-.456 2.151l-1.834 5.303a6.001 6.001 0 0 0 2.25-8.071" fill="#000" fill-rule="evenodd"/></svg>
